X: 39999
T: Three Little Boats
R: slide
M: 12/8
K: Bminor
|:E|F2 B B2 c|d3 cBc|dcB B2 B|cBA F2 E|
F2 B B2 c|d2 e f2 d/e/|f>gf edc|B3 B2:|
|:e|dcB B2 c|d2 e f2 d/e/|gfe f2 f|gfe f2 e|
d2 c B2 c|d2 e f2 d/e/|f>gf edc|B3 B2:|

